X: 64
T:Sculley's Reel
R:Reel
N:1st part is just King of the Fairies
M:4/4
L:1/8
K:Em
B,2|"Em"EDEF GFGA|BcBA GFGA|B2E2 EFGE|"D"FGFE D2F2|
"Em"EDEF GFGA|BcBA GFGA|"Bm"B3c "D"BAFA|"Em"G2E2E2:|
B2|efge B2B2|g2g2B4|c3BA2G2|FGAG D2F2|
EDEF GFGA|BABd e2d2|B3cBAFA|G2E2E2:|

